X:1
T:Bowling Green
M:4/4
L:1/4
K:G
 g g g d|e/2-d/2 B G2| g/2g/2 g/2g/2 g d| e4| g g g d| e/2d/2 ^A/2B/2 G2|\
 B d d B| d4| B d d B| G G B d| e4| g2 e2| d d B A| G4|
